components/icon/svg/24/ticket_time-outward-journey.svg

<?xml version="1.0" encoding="UTF-8"?>
<svg width="24px" height="24px" viewBox="0 0 24 24" version="1.1" xmlns="http://www.w3.org/2000/svg" xmlns:xlink="http://www.w3.org/1999/xlink">
    <!-- Generator: Sketch 64 (93537) - https://sketch.com -->
    <title>ic-db_ticket_time-outward-journey_24</title>
    <desc>Created with Sketch.</desc>
    <g id="Symbols" stroke="none" stroke-width="1" fill="none" fill-rule="evenodd">
        <g id="24dp-Icon/Ticket/Time-Outward-Journey" fill="#282D37">
            <path d="M7.5469,9.1563 C5.5781,9.9688 4.2969,11.875 4.2969,14.0313 C4.2969,17.3438 6.9844,19.2813 9.6719,19.2813 C11.5781,19.2813 13.5469,18.2813 14.4531,16.0625 C14.6406,15.625 14.9844,15.4688 15.2969,15.4688 C15.7969,15.4688 16.2969,15.8438 16.2969,16.4063 C16.2969,16.5313 16.2656,16.6563 16.2031,16.7813 C15.0781,19.4688 12.4844,21.2188 9.5781,21.2188 C5.0469,21.2188 2.4219,17.5313 2.4219,13.9375 C2.4219,11.2813 3.7969,8.6875 6.8281,7.4063 C6.9531,7.3438 7.1094,7.3125 7.2031,7.3125 C7.7656,7.3125 8.1406,7.7813 8.1406,8.2813 C8.1406,8.625 7.9844,8.9688 7.5469,9.1563 Z M8.9219,11.4688 L10.2344,13.3125 C10.3594,13.5 10.4219,13.6563 10.4844,13.8438 L10.8281,15.2813 C10.9531,15.75 10.5781,16.4688 9.8906,16.4688 C9.4844,16.4688 9.0781,16.1563 8.9844,15.7188 L8.6719,14.4063 L7.3594,12.5938 C7.2344,12.4063 7.1719,12.2188 7.1719,12.0313 C7.1719,11.5 7.6406,11.0625 8.1406,11.0625 C8.4531,11.0625 8.7031,11.2188 8.9219,11.4688 Z M15.7656,2 C18.9531,2 21.5781,4.5938 21.5781,7.8125 C21.5781,11 18.9531,13.5938 15.7656,13.5938 C12.5781,13.5938 9.9844,11 9.9844,7.8125 C9.9844,4.5938 12.5781,2 15.7656,2 Z M15.0781,4.4688 C14.5156,4.4688 14.0781,4.9375 14.0781,5.4688 C14.0781,5.75 14.1719,5.9688 14.3594,6.1563 L15.7656,7.5938 L14.3594,9 C14.1719,9.1875 14.0781,9.4063 14.0781,9.6563 C14.0781,10.25 14.5156,10.6563 15.0781,10.6563 C15.3281,10.6563 15.5781,10.5625 15.7344,10.375 L17.8594,8.2813 C18.1094,8.0625 18.2031,7.8125 18.2031,7.5938 C18.2031,7.3438 18.1094,7.125 17.8594,6.9063 L15.7344,4.7813 C15.5469,4.5938 15.3281,4.4688 15.0781,4.4688 Z" id="🎨-Color"></path>
        </g>
    </g>
</svg>

<svg width="24" height="24" xmlns="http://www.w3.org/2000/svg"><path d="M7.547 9.156a5.248 5.248 0 00-3.25 4.875c0 3.313 2.687 5.25 5.375 5.25 1.906 0 3.875-1 4.781-3.218.188-.438.531-.594.844-.594.5 0 1 .375 1 .937 0 .125-.031.25-.094.375-1.125 2.688-3.719 4.438-6.625 4.438-4.531 0-7.156-3.688-7.156-7.282 0-2.656 1.375-5.25 4.406-6.53a.942.942 0 01.375-.095c.563 0 .938.47.938.97 0 .343-.157.687-.594.874zm1.375 2.313l1.312 1.844c.125.187.188.343.25.53l.344 1.438c.125.469-.25 1.188-.937 1.188a.96.96 0 01-.907-.75l-.312-1.313-1.313-1.812a1.008 1.008 0 01-.187-.563c0-.531.469-.969.969-.969.312 0 .562.157.78.407zM15.766 2c3.187 0 5.812 2.594 5.812 5.813 0 3.187-2.625 5.78-5.812 5.78a5.788 5.788 0 01-5.782-5.78C9.984 4.592 12.578 2 15.766 2zm-.688 2.469c-.562 0-1 .468-1 1 0 .281.094.5.281.687l1.407 1.438L14.359 9a.9.9 0 00-.28.656c0 .594.437 1 1 1 .25 0 .5-.094.655-.281l2.125-2.094c.25-.219.344-.469.344-.687 0-.25-.094-.469-.344-.688l-2.125-2.125c-.187-.187-.406-.312-.656-.312z" fill="#282D37" fill-rule="evenodd"/></svg>
